public/assets/img/material-icons/umbrella.svg

<svg height="24" viewBox="0 0 24 24" width="24" xmlns="http://www.w3.org/2000/svg"><path d="m14.5 6.92-1.5-1.15v-2.37c0-.26.22-.48.5-.48s.5.21.5.48v.6h2v-.6c0-1.33-1.12-2.4-2.5-2.4s-2.5 1.07-2.5 2.4v2.37l-1.5 1.15-3.5-.85 5.05 15.25c.15.45.55.68.95.68s.8-.23.95-.69l5.05-15.24zm-1.22 1.58.76.58.92-.23-1.96 5.95v-6.51zm-3.32.59.76-.58.28-.22v6.51l-1.97-5.94z"/></svg>

<svg xmlns="http://www.w3.org/2000/svg" width="24" height="24" viewBox="0 0 24 24"><path d="M14.5 6.92 13 5.77V3.4c0-.26.22-.48.5-.48s.5.21.5.48V4h2v-.6C16 2.07 14.88 1 13.5 1S11 2.07 11 3.4v2.37L9.5 6.92 6 6.07l5.05 15.25c.15.45.55.68.95.68s.8-.23.95-.69L18 6.07l-3.5.85zM13.28 8.5l.76.58.92-.23L13 14.8V8.29l.28.21zm-3.32.59.76-.58.28-.22v6.51L9.03 8.86l.93.23z"/></svg>
